{ "compressionlevel":-1,
 "height":15,
 "infinite":false,
 "layers":[
        {
         "data":[56, 56, 56, 56, 56, 56, 56, 56, 56, 56, 56, 56, 56, 56, 56,
            56, 46, 46, 46, 46, 46, 46, 46, 46, 46, 46, 46, 46, 46, 56,
            56, 46, 46, 46, 46, 46, 46, 46, 46, 46, 46, 46, 46, 46, 56,
            56, 46, 46, 46, 46, 46, 46, 46, 46, 46, 46, 46, 46, 46, 56,
            56, 46, 46, 46, 46, 46, 46, 46, 46, 46, 46, 46, 46, 46, 56,
            56, 46, 46, 46, 46, 46, 46, 46, 46, 46, 46, 46, 46, 46, 56,
            56, 46, 46, 46, 46, 46, 46, 46, 46, 46, 46, 46, 46, 46, 56,
            56, 37, 37, 37, 37, 37, 37, 46, 46, 46, 46, 37, 37, 37, 56,
            56, 37, 37, 37, 37, 37, 37, 46, 37, 37, 37, 37, 37, 37, 56,
            56, 37, 37, 37, 37, 37, 37, 37, 37, 37, 37, 37, 37, 37, 56,
            56, 37, 37, 37, 37, 37, 37, 37, 37, 37, 37, 37, 37, 37, 56,
            56, 37, 37, 37, 37, 37, 37, 37, 37, 37, 37, 37, 37, 37, 56,
            56, 37, 37, 37, 37, 37, 37, 37, 37, 37, 37, 37, 37, 37, 56,
            56, 56, 56, 56, 56, 37, 37, 37, 37, 37, 37, 37, 37, 37, 56,
            56, 56, 56, 56, 56, 56, 56, 56, 56, 56, 56, 56, 56, 56, 56],
         "height":15,
         "id":1,
         "name":"level",
         "opacity":1,
         "type":"tilelayer",
         "visible":true,
         "width":15,
         "x":0,
         "y":0
        }, 
        {
         "data":[0, 0, 0, 0, 0, 0, 0, 0, 0, 0, 0, 0, 0, 0, 0,
            0, 0, 0, 0, 0, 0, 0, 0, 0, 0, 0, 0, 0, 0, 0,
            0, 0, 0, 0, 0, 0, 0, 0, 0, 0, 0, 0, 0, 0, 0,
            0, 0, 0, 0, 0, 0, 0, 0, 0, 0, 0, 0, 0, 0, 0,
            0, 0, 0, 4, 0, 0, 0, 0, 0, 0, 0, 4, 0, 0, 0,
            0, 0, 0, 0, 0, 0, 0, 4, 0, 0, 0, 0, 0, 0, 0,
            0, 0, 0, 0, 0, 0, 0, 0, 0, 4, 0, 0, 0, 0, 0,
            0, 0, 0, 0, 0, 0, 0, 0, 0, 0, 0, 0, 0, 0, 0,
            0, 0, 0, 0, 4, 0, 0, 0, 0, 0, 0, 0, 0, 0, 0,
            0, 0, 0, 0, 0, 0, 0, 0, 0, 0, 0, 0, 0, 0, 0,
            0, 0, 0, 0, 0, 0, 0, 0, 0, 0, 0, 0, 0, 0, 0,
            0, 0, 0, 0, 0, 0, 0, 0, 4, 0, 0, 0, 0, 0, 0,
            0, 0, 0, 0, 0, 0, 0, 0, 0, 0, 0, 0, 0, 0, 0,
            0, 0, 0, 0, 0, 0, 0, 0, 0, 0, 0, 0, 0, 0, 0,
            0, 0, 0, 0, 0, 0, 0, 0, 0, 0, 0, 0, 0, 0, 0],
         "height":15,
         "id":2,
         "name":"entities",
         "opacity":1,
         "type":"tilelayer",
         "visible":true,
         "width":15,
         "x":0,
         "y":0
        }],
 "nextlayerid":3,
 "nextobjectid":1,
 "orientation":"orthogonal",
 "renderorder":"right-down",
 "tiledversion":"1.12.2",
 "tileheight":32,
 "tilesets":[
        {
         "firstgid":1,
         "source":"..\/..\/..\/..\/..\/Users\/teoma\/tilledProject\/Tileset.tsx"
        }, 
        {
         "firstgid":33,
         "source":"..\/tilesets\/Entities.tsj"
        }, 
        {
         "firstgid":37,
         "source":"..\/tilesets\/SpriteSheet_WallsAndFloor.tsj"
        }],
 "tilewidth":32,
 "type":"map",
 "version":"1.10",
 "width":15
}